X:1
T:Paddy Fahey's No. 14
R:reel
M:4/4
L:1/8
K:G
|:G,2B,D GBdB|~c2ag fgdc|BG~G2 BcdB|cBAG FDCA,|
|G,2B,D GBdB|~c2ag fgdc|BG~G2 BcdB|1 cAFA G2DB,:|2 cAFA G2Bd|]
|:~g2fa gdBG|FGAB ~c2dc|Aaag ~a2ag|fdad bdad|
|~g2fa gdBG|FGAB ~c2Bc|dg~g2 defd|1 cAFA G2Bd:|2 cAFA G2DB,|]